Flat-Remix-Light/panel/indicator-keyboard-Sw.svg

<svg xmlns="http://www.w3.org/2000/svg" width="22" height="22" version="1.1">
 <defs>
  <style id="current-color-scheme" type="text/css">
   .ColorScheme-Text { color:#31363b; } .ColorScheme-Highlight { color:#3daee9; }
  </style>
 </defs>
 <rect style="opacity:0" width="22" height="22" x="0" y="0"/>
 <path style="fill:none;stroke:currentColor;stroke-width:1.99999976;stroke-linecap:round;stroke-linejoin:round" class="ColorScheme-Text" d="m 3.0003167,14.000066 c 0,1 0,1 0.9999987,1 0.3590928,0 0.4252988,2.18e-4 1.00001,3.2e-5 0.4545524,-1.11e-4 -1.14e-5,-3.2e-5 0.9999911,-3.2e-5 0,0 0.9999912,0 0.9999987,-1 l 7.6e-6,-1.00045 c 0,-4.214384 -3.9999986,0.211163 -3.9880175,-3.9907039 -0.00253,-0.4205456 -0.012095,-0.7453846 -0.012095,-1.0088459 0,-0.9999999 0.9999987,-0.9999999 0.9999987,-0.9999999 0.2518677,0 0.6317065,-4.499e-4 1.0000101,-4.492e-4 0.3476787,0 0.7412522,4.492e-4 0.9999911,4.492e-4 0.9999987,0 0.9999987,0 0.9999987,0.9999999"/>
 <path style="fill:none;stroke:currentColor;stroke-width:1.99999976;stroke-linecap:round;stroke-linejoin:bevel" class="ColorScheme-Text" d="m 18.999899,7.0048001 -4e-6,5.9999999 c 0,1.000449 -3e-6,2.000449 -1.000006,2.000449 -0.395448,0 -0.610938,0.0096 -0.999991,-4.48e-4 -0.383856,0.0015 -8e-6,4.48e-4 -1.000006,4.48e-4 -1.000003,0 -0.999995,-1 -0.999995,-2.000449 l 4e-6,-5.9999999 m 0,0 -4e-6,5.9999999 c 0,1.000449 -4e-6,2.000449 -1.000006,2.000449 -0.395449,0 -0.610938,0.0096 -0.999992,-4.48e-4 -0.383856,0.0015 -7e-6,4.48e-4 -1.000006,4.48e-4 -1.000002,0 -0.999995,-1 -0.999995,-2.000449 l 4e-6,-5.9999999"/>
</svg>

<svg xmlns="http://www.w3.org/2000/svg" width="12pt" height="12pt" version="1.1" viewBox="0 0 12 12">
 <g>
  <path style="fill:none;stroke-width:2;stroke-linecap:round;stroke-linejoin:round;stroke:rgb(19.215686%,21.176471%,23.137255%)" d="M 3 14 C 3 15 3 15 4 15 C 4.359375 15 4.421875 15 5 15 C 5.453125 15 5 15 6 15 C 6 15 7 15 7 14 L 7 13 C 7 8.789062 3 13.210938 3.015625 9.007812 C 3.007812 8.585938 3 8.265625 3 8 C 3 7 4 7 4 7 C 4.25 7 4.632812 7 5 7 C 5.351562 7 5.742188 7 6 7 C 7 7 7 7 7 8" transform="matrix(0.5,0,0,0.5,0.5,0.5)"/>
  <path style="fill:none;stroke-width:2;stroke-linecap:round;stroke-linejoin:bevel;stroke:rgb(19.215686%,21.176471%,23.137255%)" d="M 19 7.007812 L 19 13.007812 C 19 14.007812 19 15.007812 18 15.007812 C 17.601562 15.007812 17.390625 15.015625 17 15.007812 C 16.617188 15.007812 17 15.007812 16 15.007812 C 15 15.007812 15 14.007812 15 13.007812 L 15 7.007812 M 15 7.007812 L 15 13.007812 C 15 14.007812 15 15.007812 14 15.007812 C 13.601562 15.007812 13.390625 15.015625 13 15.007812 C 12.617188 15.007812 13 15.007812 12 15.007812 C 11 15.007812 11 14.007812 11 13.007812 L 11 7.007812" transform="matrix(0.5,0,0,0.5,0.5,0.5)"/>
 </g>
</svg>
